X: 4357
M: 3/8
L: 1/16
K: G
|:\
e2B4 |\
d>e d2d2 | e4d2 | (3(cdc) B2A2 | G4 D>d |:\
d4 D>d | d4 D>d | (3(cdc) B2A2 |[1 G4 D>d :|[2 G6 |]


